logos/stately.svg

<?xml version="1.0" encoding="UTF-8"?>
<svg width="512px" height="140px" viewBox="0 0 512 140" version="1.1" xmlns="http://www.w3.org/2000/svg" preserveAspectRatio="xMidYMid">
    <title>Stately</title>
    <g fill="#000000">
        <path d="M38.1429113,0.0203406063 L115.291445,77.1690226 C116.182181,78.1151203 116.794623,79.4512238 116.794623,80.8985457 C116.794623,82.512448 116.070963,83.9597698 114.901934,84.9058675 L62.2447258,137.563075 C60.0742373,139.734058 56.567151,139.734058 54.3966625,137.563075 L1.62813701,84.7946492 C-0.542712338,82.6236663 -0.542712338,79.1170743 1.62813701,76.9460915 L34.135194,44.3833265 L37.7533009,48.0016312 L38.5115863,48.748191 C43.6757361,54.1349733 50.6936011,67.5469966 40.0911113,78.8387812 C38.97784,79.9519537 38.97784,81.6775686 40.0911113,82.7907411 L56.3447142,99.1002989 C57.4578866,100.213471 59.1835016,100.213471 60.296674,99.1002989 L76.5503755,82.8465974 C77.0511054,82.3453732 77.4406169,81.6217123 77.4406169,80.8426893 C77.4406169,80.1190284 77.1069617,79.3953674 76.6057371,78.8946376 L62.6900931,64.9789936 L62.7459495,64.9231373 L38.1985699,40.3760046 C27.0660053,29.1876331 26.9546881,11.2085638 38.1429113,0.0203406063 Z M70.5564457,4.18989303 C76.1430686,-1.39663101 85.2006941,-1.39663101 90.787317,4.18989303 C96.3734456,9.77641707 96.3734456,18.8339432 90.787317,24.4204673 C85.2006941,30.0069913 76.1430686,30.0069913 70.5564457,24.4204673 C64.9698228,18.8339432 64.9698228,9.77641707 70.5564457,4.18989303 Z"></path>
        <path d="M188.265039,65.2572867 C175.40671,63.5875281 173.235727,60.9158154 173.235727,55.6277521 C173.235727,50.2843267 178.189642,46.9443151 186.205274,46.9443151 C194.633485,46.9443151 199.023178,49.602764 200.648194,55.7031952 L200.900435,56.7409245 L208.303625,56.7409245 L208.247769,56.4626314 C206.967522,46.4989473 199.118964,41.0443035 186.149418,41.0443035 C174.18232,41.0443035 165.498883,47.4455393 165.498883,56.2955567 C165.498883,66.7015529 174.585883,69.8861933 184.916117,71.4800905 L186.928935,71.7702352 C198.506522,73.3841375 202.06897,75.8334134 202.06897,82.0675744 C202.06897,87.9680803 196.113101,92.1983333 187.875033,92.1983333 C174.905487,92.1983333 172.28963,86.4649021 171.343533,80.2865974 L171.287676,80.0636663 L163.3279,80.0636663 L163.383756,80.3419595 C164.385216,88.4134482 169.450843,98.0983449 187.875033,98.0983449 C200.51043,98.0983449 210.084602,90.9734482 210.084602,81.5668446 C210.084602,70.489988 201.735314,67.1499764 188.265039,65.2572867 Z M262.795689,41.7669759 L217.65289,41.7669759 L217.65289,48.8360162 L236.077573,48.8360162 L236.077573,97.430046 L244.315643,97.430046 L244.315643,48.8360162 L262.795689,48.8360162 L262.795689,41.7669759 Z M285.394276,41.7669759 L263.351781,97.430046 L271.200338,97.430046 L277.323281,81.565856 L303.150661,81.565856 L309.385317,97.430046 L317.567529,97.430046 L295.859184,41.7669759 L285.394276,41.7669759 Z M280.162069,75.1646202 L290.236971,48.27943 L300.311874,75.1646202 L280.162069,75.1646202 Z M318.681196,48.8360162 L337.161242,48.8360162 L337.161242,97.430046 L345.399312,97.430046 L345.399312,48.8360162 L363.879358,48.8360162 L363.879358,41.7669759 L318.681196,41.7669759 L318.681196,48.8360162 Z M384.140875,72.9936374 L399.782134,72.9936374 L399.782134,65.9804534 L384.140875,65.9804534 L384.140875,48.8360162 L414.922169,48.8360162 L414.922169,41.7669759 L375.902806,41.7669759 L375.902806,97.430046 L414.922169,97.430046 L414.922169,90.3605113 L384.140875,90.3605113 L384.140875,72.9936374 Z M436.515836,41.7669759 L436.515836,90.3605113 L465.571515,90.3605113 L465.571515,97.430046 L428.277767,97.430046 L428.277767,41.7669759 L436.515836,41.7669759 Z M471.36624,41.7669759 L487.842378,67.1494821 L503.651207,41.7669759 L512,41.7669759 L491.738975,73.2724248 L491.738975,97.430046 L483.500906,97.430046 L483.500906,73.2165684 L462.014998,41.7669759 L471.36624,41.7669759 Z"></path>
    </g>
</svg>

<svg preserveAspectRatio="xMidYMid" viewBox="0 0 512 140" xmlns="http://www.w3.org/2000/svg">
  <path d="m38.143.02 77.147 77.15c.891.946 1.504 2.282 1.504 3.73a5.128 5.128 0 0 1-1.893 4.007l-52.657 52.657a5.543 5.543 0 0 1-7.848 0L1.628 84.795a5.543 5.543 0 0 1 0-7.849l32.507-32.563 3.618 3.619.759.746c5.164 5.387 12.182 18.799 1.58 30.09-1.114 1.114-1.114 2.84 0 3.953L56.344 99.1a2.758 2.758 0 0 0 3.952 0L76.55 82.846c.501-.502.89-1.225.89-2.004 0-.724-.333-1.448-.834-1.948L62.69 64.979l.056-.056-24.547-24.547C27.066 29.188 26.955 11.209 38.143.02Zm32.413 4.17c5.587-5.587 14.645-5.587 20.231 0 5.586 5.586 5.586 14.644 0 20.23-5.586 5.587-14.644 5.587-20.23 0-5.587-5.586-5.587-14.644 0-20.23Z"/>
  <path d="M188.265 65.257c-12.858-1.67-15.03-4.341-15.03-9.63 0-5.343 4.955-8.683 12.97-8.683 8.428 0 12.818 2.659 14.443 8.76l.252 1.037h7.404l-.056-.278c-1.28-9.964-9.129-15.419-22.099-15.419-11.967 0-20.65 6.402-20.65 15.252 0 10.406 9.087 13.59 19.417 15.184l2.013.29c11.578 1.614 15.14 4.063 15.14 10.298 0 5.9-5.956 10.13-14.194 10.13-12.97 0-15.585-5.733-16.531-11.911l-.056-.223h-7.96l.056.278c1.001 8.071 6.067 17.756 24.491 17.756 12.635 0 22.21-7.125 22.21-16.531 0-11.077-8.35-14.417-21.82-16.31Zm74.53-23.49h-45.142v7.069h18.425V97.43h8.238V48.836h18.48v-7.069Zm22.6 0L263.351 97.43h7.848l6.123-15.864h25.828l6.234 15.864h8.183l-21.709-55.663h-10.465Zm-5.233 33.398 10.075-26.886 10.075 26.886h-20.15Zm38.52-26.329h18.48V97.43h8.237V48.836h18.48v-7.069h-45.198v7.069Zm65.459 24.158h15.641V65.98h-15.641V48.836h30.781v-7.069h-39.02V97.43h39.02v-7.07h-30.781V72.995Zm52.375-31.227v48.594h29.056v7.069h-37.294V41.767h8.238Zm34.85 0 16.476 25.382 15.81-25.382H512l-20.261 31.505V97.43h-8.238V73.217l-21.486-31.45h9.351Z"/>
</svg>
